X:141
T:Julia Delaney
R:Reel
O:Ireland
B:O'Neill's 1401
S:Patti Walters, Galt Barber
Z:Transcription, arrangement, chords:Mike Long
M:C|
L:1/8
K:F
"Dm"dcAG F2DF|"C"E2CE "Dm"F2D2|"Dm"dcAG FDDF|"C"Addc defe|\
"Dm"dcAG F2DF|"C"E2CE "Dm"F2D2|
"Dm"dcAG FDDF|[1 "C"Addc "Dm"d4:|[2 "Am"Addc "Dm"d2de\
|:"F"f2fe fagf|"C"ec gc ac gc|"Bb"f2fe fagf|
"Am"edcB Adde|"F"f2fe fagf|"C"ec gc ac gc|"Bb"fedf "Am"edcB|\
[1 "C"Addc "Dm"d2de:|[2 "Am"Addc "Dm"d4|]
